X:1
T:Title
%%score ( 1 2 ) ( 3 4 )
L:1/8
Q:1/4=100
M:4/4
K:Ab
V:1 treble nm="Midi_20"
V:2 treble 
V:3 bass nm="Midi_20"
V:4 bass 
V:1
"^Arundel (87. 87)""^John Bacchus Dykes\n(1823-76)""^Saviour, while my heart is tender""^John Burton\n(1803-77)" E2 A2 G2 A2 | %1
 B2 c2 c2 B2 | c2 F2 G2 A2 | F2 F2 E4 || c2 c2 B2 B2 | d2 d2 c2 c2 | e2 A2 B2 c2 | B2 B2 A4 |] %8
V:2
 E2 E2 E2 E2 | E2 (CD) E2 E2 | E2 E2 E2 E2 | E2 =D2 E4 || C2 E2 E2 E2 | D2 F2 F2 F2 | %6
w: Sa- viour, while my|heart is * ten- der,|I would yield that|heart to Thee,|||
w: Take me now, Lord|Je- sus, * take me;|Let my youth- ful|heart be Thine;|||
w: Send me, Lord, where|Thou wilt * send me,|On- ly do Thou|guide my way;|||
w: Let me do Thy|will or * bear it;|I would know no|will but Thine;|||
w: Thine I am, O|Lord, for * e- ver,|To Thy ser- vice|set a- part;|||
 _G2 F2 (ED) C2 | E2 D2 C4 |] %8
w: Thine, and on\- * ly|Thine to be.|
w: Fill my soul * with|love di- vine.|
w: Glad- ly then * shall|I o- bey.|
w: I that life * to|Thee re- sign.|
w: Seal Thine im\- * age|on my heart.|
V:3
 C2 C2 B,2 A,2 | G,2 A,2 A,2 G,2 | A,2 C2 B,2 A,2 | B,2 A,2 G,4 || A,2 A,2 G,2 G,2 | %5
 B,2 B,2 A,2 A,2 | A,2 A,2 =G,2 A,2 | A,2 G,2 A,4 |] %8
V:4
 A,2 E,2 D,2 C,2 | B,,2 A,,2 E,2 E,2 | A,,2 A,2 G,2 F,2 | B,,2 B,,2 E,4 || A,,2 (C,D,) E,2 E,2 | %5
w: ||||All my * powers to|
w: ||||Thy de\- * vot- ed|
w: ||||May Thy * grace through|
w: ||||Shouldst Thou * take my|
w: ||||Suf- fer * me to|
 B,,2 (D,E,) F,2 F,2 | C,2 D,2 B,,2 A,,2 | E,2 E,2 A,,4 |] %8
w: Thee sur\- * ren- der,|||
w: ser- vant * make me;|||
w: life at\- * tend me,|||
w: life or * spare it,|||
w: leave Thee * ne- ver;|||

